!!!OTL: 588. Abendphantasien eines Hessen in Amerika.
!!!ODT: 1780
!!!ARE: Europa, Mitteleuropa, Deutschland
!!!SCT: B0588
!!!TXL: @@DE
!!!YEM: Copyright 1995, estate of Helmut Schaffrath.
**kern	**text
*ICvox	*
*Ivox	*
*clefG2	*
*M4/4	*
*met(c)	*
*k[]	*
*C:	*
=1	=1
{4.cc	Ue-
8g	-ber
4cc	die
4ee	ver-
=2	=2
4.dd	-heer-
8b	-ten
4g	Matten
4g}	.
=3	=3
{4.cc	deh-
8g	-net
4cc	unſ-
4ee	-rer
=4	=4
4.dd	Ʒel-
8b	-te
4g	Schatten
4g}	.
=5	=5
{4ee	ſchon
4ee	in
8eeL	läng'-
8ddJ	.
8eeL	-re
8ccJ	.
=6	=6
4b	Reihen
4a	.
4g	ſich;
4r}	.
=7||	=7||
{4.g	Ster-
8d	-ne
4g	blinken
4b	.
=8	=8
4.a	ſchon
8d	im
4a	O-
4cc}	-ſten;
=9	=9
{4.b	ʒum
8g	ge-
4b	-ſah-
4dd	-ren-
=10	=10
4.cc	-vol-
8g	-len
4cc	Po-
4ee}	-ſten
=11	=11
{4ff	ru-
4ff	-fet
4ee	ſchon
8ffL	die
8ddJ	.
=12	=12
4cc	Trom-
4b	-mel
4cc	mich.
4r}	.
==	==
!!!AGN: Staende -, Soldaten - Lied, Klage, Heimweh, politisch
!!!GTL: Soldatenlieder
!!!ONB: ESAC (Essen Associative Code) Database: BOEHME
!!!AMT: simple quadruple
!!!AIN: vox
!!!EED: Helmut Schaffrath
!!!EEV: 1.0
!!@@COMMENT:"Aus dem "Muſen-Almanach". Göttingen 1780. Verfaſſer nicht genannt aus Furcht vor der
!!Cenſur, weil es ein Strafgedicht gegen den Heſſ. Kurfürſten iſt, der 1776 Soldaten nach Amerika
!!an die Engländer verkaufte (ſ. Liederbort JJ, Nr. 333. Tert und Mel. ſind natürlich in Deutſch-
!!land gemacht."
!!@@END:
!!!URL-scan: https://archive.org/details/BoehmeVtLieder1895/page/n467/mode/2up
!!!ENC: Anna Maria Matuszewska
!!!EEV: 2024/12/07
*-	*-
